assets/img/braze_icons/asterisk-01.svg

<svg fill="none" height="24" viewBox="0 0 24 24" width="24" xmlns="http://www.w3.org/2000/svg"><path d="m13 2c0-.55228-.4477-1-1-1s-1 .44772-1 1v7.58582l-5.36397-5.36397c-.39052-.39053-1.02369-.39053-1.41421 0-.39053.39052-.39053 1.02369 0 1.41421l5.36394 5.36394h-7.58576c-.55228 0-1 .4477-1 1s.44772 1 1 1h7.5858l-5.36398 5.364c-.39053.3905-.39053 1.0237 0 1.4142.39052.3905 1.02369.3905 1.41421 0l5.36397-5.364v7.5858c0 .5523.4477 1 1 1s1-.4477 1-1v-7.5858l5.364 5.364c.3905.3905 1.0236.3905 1.4142 0 .3905-.3905.3905-1.0237 0-1.4142l-5.364-5.364h7.5858c.5523 0 1-.4477 1-1s-.4477-1-1-1h-7.5858l5.364-5.36394c.3905-.39052.3905-1.02369 0-1.41421-.3906-.39053-1.0237-.39053-1.4142 0l-5.364 5.36395z" fill="#801ed7"/></svg>

<svg width="24" height="24" viewBox="0 0 24 24" fill="none" xmlns="http://www.w3.org/2000/svg">
<path d="M13 2C13 1.44772 12.5523 1 12 1C11.4477 1 11 1.44772 11 2V9.58582L5.63603 4.22185C5.24551 3.83132 4.61234 3.83132 4.22182 4.22185C3.83129 4.61237 3.83129 5.24554 4.22182 5.63606L9.58576 11H2C1.44772 11 1 11.4477 1 12C1 12.5523 1.44772 13 2 13H9.5858L4.22182 18.364C3.83129 18.7545 3.83129 19.3877 4.22182 19.7782C4.61234 20.1687 5.24551 20.1687 5.63603 19.7782L11 14.4142V22C11 22.5523 11.4477 23 12 23C12.5523 23 13 22.5523 13 22V14.4142L18.364 19.7782C18.7545 20.1687 19.3876 20.1687 19.7782 19.7782C20.1687 19.3877 20.1687 18.7545 19.7782 18.364L14.4142 13H22C22.5523 13 23 12.5523 23 12C23 11.4477 22.5523 11 22 11H14.4142L19.7782 5.63606C20.1687 5.24554 20.1687 4.61237 19.7782 4.22185C19.3876 3.83132 18.7545 3.83132 18.364 4.22185L13 9.5858V2Z" fill="#801ED7"/>
</svg>
